dist/images/folder-icon.svg

<svg width="20" height="20" viewBox="0 0 20 20" fill="none" xmlns="http://www.w3.org/2000/svg">
<path d="M19.2352 10.6772C19.6576 10.6772 20 10.3347 20 9.91206V8.89183C20 4.8461 18.1978 2.87601 14.5055 2.87601H11.7802C11.3366 2.87811 10.9173 2.67325 10.6462 2.32192L9.76703 1.15217C9.19911 0.423114 8.3261 -0.00221732 7.4022 8.69426e-06H5.48571C1.84615 8.69426e-06 0 2.10204 0 6.25331V13.7555C0 17.6077 2.39121 20 6.25055 20H13.7407C17.5912 20 19.9912 17.6077 19.9912 13.7555C19.9491 13.3622 19.6174 13.0639 19.222 13.0639C18.8266 13.0639 18.4948 13.3622 18.4527 13.7555C18.4527 16.7898 16.7824 18.4697 13.7407 18.4697H6.24176C3.2 18.4697 1.52967 16.7986 1.52967 13.7555V13.0255H13.8374C14.2598 13.0255 14.6022 12.6829 14.6022 12.2603C14.6022 11.8378 14.2598 11.4952 13.8374 11.4952H1.52967V6.21813C1.52967 2.91119 2.70769 1.49518 5.47692 1.49518H7.41099C7.85461 1.50174 8.27147 1.70864 8.54506 2.05806L9.42418 3.21901C9.98217 3.95875 10.8539 4.39481 11.7802 4.39755H14.4967C17.3538 4.39755 18.4615 5.67284 18.4615 8.89183V9.91206C18.4615 10.1165 18.5433 10.3125 18.6887 10.4563C18.834 10.6 19.0308 10.6796 19.2352 10.6772Z" fill="#589574"/>
</svg>

<svg width="20" height="20" fill="none" xmlns="http://www.w3.org/2000/svg"><path d="M19.235 10.677A.765.765 0 0020 9.912v-1.02c0-4.046-1.802-6.016-5.495-6.016H11.78a1.424 1.424 0 01-1.134-.554l-.879-1.17A2.989 2.989 0 007.402 0H5.486C1.846 0 0 2.102 0 6.253v7.502C0 17.608 2.391 20 6.25 20h7.49c3.851 0 6.251-2.392 6.251-6.245a.774.774 0 00-1.538 0c0 3.035-1.67 4.715-4.712 4.715h-7.5c-3.041 0-4.711-1.671-4.711-4.714v-.73h12.307a.765.765 0 000-1.53H1.53V6.217c0-3.307 1.178-4.723 3.947-4.723H7.41c.444.007.86.214 1.134.563l.88 1.161a2.962 2.962 0 002.355 1.179h2.717c2.857 0 3.965 1.275 3.965 4.494v1.02a.765.765 0 00.773.765z" fill="#589574"/></svg>
